SVG_Azure_All/Log Analytics Workspace.svg

<?xml version="1.0" encoding="UTF-8" standalone="no"?>
<!-- Generated by Microsoft Visio, SVG Export Log Analytics Workspace.svg Page-1 -->

<svg
   xmlns:dc="http://purl.org/dc/elements/1.1/"
   xmlns:cc="http://creativecommons.org/ns#"
   xmlns:rdf="http://www.w3.org/1999/02/22-rdf-syntax-ns#"
   xmlns:svg="http://www.w3.org/2000/svg"
   xmlns="http://www.w3.org/2000/svg"
   xmlns:sodipodi="http://sodipodi.sourceforge.net/DTD/sodipodi-0.dtd"
   xmlns:inkscape="http://www.inkscape.org/namespaces/inkscape"
   width="0.78739846in"
   height="0.78739846in"
   viewBox="0 0 56.692597 56.693"
   xml:space="preserve"
   class="st4"
   version="1.1"
   id="svg39"
   sodipodi:docname="Log Analytics Workspace.svg"
   style="font-size:12px;overflow:visible;color-interpolation-filters:sRGB;fill:none;fill-rule:evenodd;stroke-linecap:square;stroke-miterlimit:3"
   inkscape:version="0.92.5 (2060ec1f9f, 2020-04-08)"><metadata
   id="metadata43"><rdf:RDF><cc:Work
       rdf:about=""><dc:format>image/svg+xml</dc:format><dc:type
         rdf:resource="http://purl.org/dc/dcmitype/StillImage" /></cc:Work></rdf:RDF></metadata><sodipodi:namedview
   pagecolor="#ffffff"
   bordercolor="#666666"
   borderopacity="1"
   objecttolerance="10"
   gridtolerance="10"
   guidetolerance="10"
   inkscape:pageopacity="0"
   inkscape:pageshadow="2"
   inkscape:window-width="640"
   inkscape:window-height="480"
   id="namedview41"
   showgrid="false"
   inkscape:zoom="1.4193119"
   inkscape:cx="37.795128"
   inkscape:cy="37.784457"
   inkscape:window-x="0"
   inkscape:window-y="0"
   inkscape:window-maximized="0"
   inkscape:current-layer="svg39" />
	<style
   type="text/css"
   id="style2">
	<![CDATA[
		.st1 {fill:url(#grad0-6);stroke:none;stroke-linecap:butt;stroke-width:34}
		.st2 {fill:#7de2fb;stroke:none;stroke-linecap:butt;stroke-width:34}
		.st3 {fill:#ffffff;stroke:none;stroke-linecap:butt;stroke-width:34}
		.st4 {fill:none;fill-rule:evenodd;font-size:12px;overflow:visible;stroke-linecap:square;stroke-miterlimit:3}
	]]>
	</style>

	<defs
   id="Patterns_And_Gradients">
		<linearGradient
   id="grad0-6"
   x1="0"
   y1="68.015697"
   x2="56.693001"
   y2="68.015697"
   gradientUnits="userSpaceOnUse">
			<stop
   offset="0"
   stop-color="#005ba1"
   stop-opacity="1"
   id="stop4" />
			<stop
   offset="0.17"
   stop-color="#0063ae"
   stop-opacity="1"
   id="stop6" />
			<stop
   offset="0.575"
   stop-color="#0072ca"
   stop-opacity="1"
   id="stop8" />
			<stop
   offset="0.815"
   stop-color="#0078d4"
   stop-opacity="1"
   id="stop10" />
		</linearGradient>
	</defs>
	<g
   id="g37"
   transform="translate(-34.000441,-33.999997)">
		<title
   id="title14">Page-1</title>
		<g
   id="group3356-1"
   transform="translate(34,-34.0157)">
			<title
   id="title16">Log Analytics Workspace</title>
			<g
   id="group3357-2">
				<title
   id="title18">Workspaces</title>
				<g
   id="shape3358-3">
					<title
   id="title20">Sheet.3358</title>
					<circle
   cx="28.3465"
   cy="96.362198"
   class="st1"
   id="ellipse22"
   r="28.3465"
   style="fill:url(#grad0-6);stroke:none;stroke-width:34;stroke-linecap:butt" />
				</g>
				<g
   id="shape3359-7"
   transform="translate(25.4351,-25.3851)">
					<title
   id="title25">Sheet.3359</title>
					<path
   d="M 2.51,107.37 A 2.51116,2.51116 -180 0 0 0,109.88 v 12.32 a 2.51116,2.51116 -180 0 0 2.51,2.51 h 12.32 a 2.50783,2.50783 -180 0 0 2.5,-2.51 v -12.32 a 2.50783,2.50783 -180 0 0 -2.5,-2.51 z m 2.26,3.27 a 1.50403,1.50403 -180 0 0 -1.51,1.5 v 7.8 a 1.50736,1.50736 -180 0 0 1.51,1.51 h 7.81 a 1.50403,1.50403 -180 0 0 1.51,-1.51 v -7.8 a 1.50403,1.50403 -180 0 0 -1.51,-1.5 z"
   class="st2"
   id="path27"
   inkscape:connector-curvature="0"
   style="fill:#7de2fb;stroke:none;stroke-width:34;stroke-linecap:butt" />
				</g>
				<g
   id="shape3360-9"
   transform="translate(13.9231,-13.9731)">
					<title
   id="title30">Sheet.3360</title>
					<path
   d="m 0,105.33 a 1.50403,1.50403 0 0 1 1.5,-1.5 h 6.18 a 1.50403,1.50403 0 0 1 1.5,1.5 v 6.21 a 1.50403,1.50403 0 0 1 -1.5,1.5 H 1.5 A 1.50403,1.50403 0 0 1 0,111.54 Z m 0,11.7 a 1.50403,1.50403 0 0 1 1.5,-1.5 h 6.18 a 1.50403,1.50403 0 0 1 1.5,1.5 v 6.17 a 1.50403,1.50403 0 0 1 -1.5,1.51 H 1.5 A 1.50403,1.50403 0 0 1 0,123.2 Z m 11.51,-0.15 a 1.50403,1.50403 0 0 1 1.51,-1.5 h 6.17 a 1.50736,1.50736 0 0 1 1.51,1.5 v 6.17 a 1.50736,1.50736 0 0 1 -1.51,1.51 h -6.17 a 1.50403,1.50403 0 0 1 -1.51,-1.51 z"
   class="st3"
   id="path32"
   inkscape:connector-curvature="0"
   style="fill:#ffffff;stroke:none;stroke-width:34;stroke-linecap:butt" />
				</g>
			</g>
		</g>
	</g>
</svg>

<?xml version="1.0" encoding="UTF-8" standalone="no"?>
<!DOCTYPE svg PUBLIC "-//W3C//DTD SVG 1.1//EN" "http://www.w3.org/Graphics/SVG/1.1/DTD/svg11.dtd">
<!-- Generated by Microsoft Visio, SVG Export Log Analytics Workspace.svg Page-1 -->
<svg xmlns="http://www.w3.org/2000/svg" xmlns:xlink="http://www.w3.org/1999/xlink" xmlns:ev="http://www.w3.org/2001/xml-events"
		width="1.73185in" height="1.73206in" viewBox="0 0 124.693 124.709" xml:space="preserve" color-interpolation-filters="sRGB"
		class="st4">
	<style type="text/css">
	<![CDATA[
		.st1 {fill:url(#grad0-6);stroke:none;stroke-linecap:butt;stroke-width:34}
		.st2 {fill:#7de2fb;stroke:none;stroke-linecap:butt;stroke-width:34}
		.st3 {fill:#ffffff;stroke:none;stroke-linecap:butt;stroke-width:34}
		.st4 {fill:none;fill-rule:evenodd;font-size:12px;overflow:visible;stroke-linecap:square;stroke-miterlimit:3}
	]]>
	</style>

	<defs id="Patterns_And_Gradients">
		<linearGradient id="grad0-6" x1="0" y1="0" x2="1" y2="0" gradientTransform="rotate(-90 0.5 0.5)">
			<stop offset="0" stop-color="#005ba1" stop-opacity="1"/>
			<stop offset="0.17" stop-color="#0063ae" stop-opacity="1"/>
			<stop offset="0.575" stop-color="#0072ca" stop-opacity="1"/>
			<stop offset="0.815" stop-color="#0078d4" stop-opacity="1"/>
		</linearGradient>
	</defs>
	<g>
		<title>Page-1</title>
		<g id="group3304-1" transform="translate(34,-34.0157)">
			<title>Log Analytics Workspace</title>
			<g id="group3305-2">
				<title>Workspaces</title>
				<g id="shape3306-3">
					<title>Sheet.3306</title>
					<ellipse cx="28.3465" cy="96.3622" rx="28.3465" ry="28.3465" class="st1"/>
				</g>
				<g id="shape3307-7" transform="translate(25.4351,-25.3851)">
					<title>Sheet.3307</title>
					<path d="M2.51 107.37 A2.51116 2.51116 -180 0 0 -0 109.88 L0 122.2 A2.51116 2.51116 -180 0 0 2.51 124.71 L14.83
								 124.71 A2.50783 2.50783 -180 0 0 17.33 122.2 L17.33 109.88 A2.50783 2.50783 -180 0 0 14.83 107.37
								 L2.51 107.37 ZM4.77 110.64 A1.50403 1.50403 -180 0 0 3.26 112.14 L3.26 119.94 A1.50736 1.50736 -180
								 0 0 4.77 121.45 L12.58 121.45 A1.50403 1.50403 -180 0 0 14.09 119.94 L14.09 112.14 A1.50403 1.50403
								 -180 0 0 12.58 110.64 L4.77 110.64 Z" class="st2"/>
				</g>
				<g id="shape3308-9" transform="translate(13.9231,-13.9731)">
					<title>Sheet.3308</title>
					<path d="M0 105.33 A1.50403 1.50403 0 0 1 1.5 103.83 L7.68 103.83 A1.50403 1.50403 0 0 1 9.18 105.33 L9.18 111.54
								 A1.50403 1.50403 0 0 1 7.68 113.04 L1.5 113.04 A1.50403 1.50403 0 0 1 0 111.54 L0 105.33 ZM0 117.03
								 A1.50403 1.50403 0 0 1 1.5 115.53 L7.68 115.53 A1.50403 1.50403 0 0 1 9.18 117.03 L9.18 123.2 A1.50403
								 1.50403 0 0 1 7.68 124.71 L1.5 124.71 A1.50403 1.50403 0 0 1 0 123.2 L0 117.03 ZM11.51 116.88 A1.50403
								 1.50403 0 0 1 13.02 115.38 L19.19 115.38 A1.50736 1.50736 0 0 1 20.7 116.88 L20.7 123.05 A1.50736
								 1.50736 0 0 1 19.19 124.56 L13.02 124.56 A1.50403 1.50403 0 0 1 11.51 123.05 L11.51 116.88 Z"
							class="st3"/>
				</g>
			</g>
		</g>
	</g>
</svg>
